img/map_logo.svg

<svg width="64" height="72" viewBox="0 0 64 72" fill="none" xmlns="http://www.w3.org/2000/svg">
<circle cx="32" cy="32" r="32" fill="black"/>
<path d="M32.5 72L26.8708 61.5L38.1292 61.5L32.5 72Z" fill="black"/>
<path d="M12 25.4539L13.1402 24.616V46.0787H12V25.4539Z" fill="#DBBC9A"/>
<path d="M15.8537 22.9373V46.0785H14.7222V43.099H15.2879V28.6647L14.7222 29.0836V23.7724L15.8537 22.9373Z" fill="#DBBC9A"/>
<path d="M18.5748 21.2556V46.0781H17.4375V43.0987H18.0033V26.9913L17.4375 27.4103V22.099L18.5748 21.2556Z" fill="#DBBC9A"/>
<path d="M21.2945 19.5776V46.0787H20.1543V43.0992H20.723V25.3106L20.1543 25.724V20.4155L21.2945 19.5776Z" fill="#DBBC9A"/>
<path d="M24.0142 17.8909V46.0787H22.874V43.0993H23.4398V23.6266L22.874 24.0428V18.7343L24.0142 17.8909Z" fill="#DBBC9A"/>
<path d="M26.733 16.2124V46.0788H25.5928V43.0993H26.1672V21.9398L25.5928 22.3643V17.0558L26.733 16.2124Z" fill="#DBBC9A"/>
<path d="M29.5323 16.5154V46.0786H28.2305V43.0992H28.8771V21.5676L28.2305 21.3085V16L29.5323 16.5154Z" fill="#DBBC9A"/>
<path d="M32.2525 17.5568V46.0782H30.9507V43.0987H31.5973V22.609L30.9507 22.3444V17.0359L32.2525 17.5568Z" fill="#DBBC9A"/>
<path d="M34.9689 18.5993V46.0788H33.6699V43.0993H34.3165V23.6459L33.6699 23.3868V18.0784L34.9689 18.5993Z" fill="#DBBC9A"/>
<path d="M37.6872 19.641V46.0787H36.3882V43.0992H37.0406V24.6877L36.3882 24.4314V19.1201L37.6872 19.641Z" fill="#DBBC9A"/>
<path d="M40.4079 20.6779V46.0793H39.1089V43.0998H39.7555V25.7301L39.1089 25.4655V20.1653L40.4079 20.6779Z" fill="#DBBC9A"/>
<path d="M43.1256 21.7217V46.0784H41.8237V43.0989H42.479V26.7711L41.8237 26.5092V21.198L43.1256 21.7217Z" fill="#DBBC9A"/>
<path d="M45.8458 22.7636V46.0785H44.5439V43.099H45.1905V27.8075L44.5439 27.5512V22.2427L45.8458 22.7636Z" fill="#DBBC9A"/>
<path d="M48.565 23.8061V46.0791H47.2632V43.0996H47.9156V28.8527L47.2632 28.5936V23.2852L48.565 23.8061Z" fill="#DBBC9A"/>
<path d="M51.2833 24.8422V46.0789H49.9814V43.0994H50.628V29.8944L49.9814 29.6298V24.3213L51.2833 24.8422Z" fill="#DBBC9A"/>
<path d="M52.7012 25.3628L54.0001 25.8837V46.0785H52.7012V25.3628Z" fill="#DBBC9A"/>
</svg>

<svg xmlns="http://www.w3.org/2000/svg" width="64" height="72" fill="none"><circle cx="32" cy="32" r="32" fill="#000"/><path fill="#000" d="m32.5 72-5.63-10.5h11.26L32.5 72Z"/><path fill="#DBBC9A" d="m12 25.454 1.14-.838v21.463H12V25.454ZM15.854 22.937v23.141h-1.132V43.1h.566V28.665l-.566.419v-5.312l1.132-.835ZM18.575 21.256v24.822h-1.137v-2.98h.565V26.992l-.566.42v-5.312l1.138-.843ZM21.294 19.578v26.5h-1.14V43.1h.569V25.311l-.569.413v-5.308l1.14-.838ZM24.014 17.89V46.08h-1.14v-2.98h.566V23.627l-.566.416v-5.309l1.14-.843ZM26.733 16.212V46.08h-1.14v-2.98h.574V21.94l-.574.425v-5.308l1.14-.844ZM29.532 16.515V46.08H28.23v-2.98h.647V21.568l-.646-.26V16l1.301.515ZM32.252 17.557v28.521h-1.301v-2.98h.646V22.61l-.646-.265v-5.308l1.301.52ZM34.969 18.6v27.479h-1.3v-2.98h.648V23.646l-.647-.26v-5.308l1.299.521ZM37.687 19.641v26.438h-1.299v-2.98h.653V24.688l-.653-.257v-5.31l1.3.52ZM40.408 20.678v25.401h-1.3V43.1h.648V25.73l-.647-.265v-5.3l1.299.513ZM43.126 21.722v24.356h-1.302v-2.98h.655V26.772l-.655-.262v-5.311l1.302.524ZM45.846 22.764v23.314h-1.302V43.1h.647V27.808l-.647-.257v-5.308l1.302.52ZM48.565 23.806V46.08h-1.302V43.1h.653V28.854l-.653-.26v-5.308l1.302.521ZM51.283 24.842V46.08h-1.302v-2.98h.647V29.894l-.647-.264V24.32l1.302.521ZM52.701 25.363l1.3.52v20.195h-1.3V25.363Z"/></svg>
